X:31
T:THE MANCHESTER HORNPIPE
B:John of the Greeny Cheshire Way
N:\251 John Offord, Reproduced with permission
M:3/2
L:1/8
K:G
P:1
G2 E4 e2 e2 d^c | d2 A4 G2 F2 ED | G2 E4 e2 g2 fe | e2 B4 A2 G2 FE ||
P:2
G2 E2 A2 F2 B2 G2 | d2 A4 G2 F2 ED | G2 E2 A2 F2 B2 G2 | e2 B4 A2 G2 FE ||
P:3
efge f2 g2 a2 gf | g2 fe f2 g2 ^d2 ^cB | efge f2 g2 a2 gf | e2 B4 A2 G2 FE ||
P:4
EFGE G2 B2 G2 B2 | =DEFD F2 A2 F2 A2 | EFGE GABG B^c^dB | e2 B4 A2 G2 FE ||
P:5
e2 E4 ef g2 fe | f2 =D4 fg a2 gf | g2 E4 AB c2 BA | B2 e4 A2 G2 FE ||
P:6
B2 e4 f2 g2 fe | A2 e4 f2 g2 fe | G2 e4 f2 g2 fe | B2 e4 A2 G2 FE ||
P:7
efge fgaf efge | f2 d4 A2 F2 ED | efge fgaf efge | e2 B4 A2 G2 FE ||
P:8
GA B2 AB c2 B^c d2 | A2 F4 G2 F2 ED | GA B2 AB =c2 B^c ^d2 | e2 B4 A2 GF E2 |]
